X: 2117
T: Nut Brown Maiden
B: nick
B: to learn
M:2/4
R: polka
Q: 1/4=100
K:Dmajor
V:1 
A2| "D"d2>c2 B2 A2| d4 A2 d2| "D"f2>d2 "Bm"g2 f2| "Em"f2 e2 "A"e2 g2|"D"f2<a2 f2<a2| "D"A4 d2 e2|
 "Em"f2>f2 "A"g2 e2| "D"d4 d2||g2| "D"f2<a2 g2 B2| "A"A4 d2 e2| "D"f2>d2 g2 f2|
"G"f2 e2 "A"e2 g2| "D"f2<a2 g2 B2| "D"A4 d2 e2| "Em"f2>f2 "A"g2 e2|"D"d4 d2||
% abcbook-tune_id 634562151c4d07b74a010919
% abcbook-link-0 https://www.youtube.com/watch?v=6-fTKA0BO6k
% abcbook-link-title-0 Nut Brown Maiden - 2 SCOTS P&amp;D

% abcbook-boost 0
% abcbook-tablature 
% abcbook-transpose 
% abcbook-lastupdated 1666790047185
% abcbook-soundfonts 
% abcbook-repeats 3


